COLOR/action 16/16/align-horizontal-right.svg

<svg viewBox="0 0 24 24" xmlns="http://www.w3.org/2000/svg"><g transform="matrix(0 1 1 0 6 0)"><path d="m7 4v6h13v-6zm0 10v6h6v-6z" fill="#c43ac4" transform="matrix(0 -1 1 0 0 18)"/><path d="m4 13v1h16v-1z" fill="#e95420"/><g transform="matrix(0 1 1 0 0 -6)"><path d="m4 4v.5h13v-.5zm15 0v.5h1v-.5zm-8 10v.5h6v-.5z" fill="#fff" opacity=".3"/><path d="m4 9.5v.5h13v-.5zm7 10v.5h6v-.5zm8 0v.5h1v-.5z" opacity=".2"/></g></g></svg>

<?xml version="1.0" encoding="UTF-8" standalone="no"?>
<svg
   xmlns:dc="http://purl.org/dc/elements/1.1/"
   xmlns:cc="http://creativecommons.org/ns#"
   xmlns:rdf="http://www.w3.org/1999/02/22-rdf-syntax-ns#"
   xmlns:svg="http://www.w3.org/2000/svg"
   xmlns="http://www.w3.org/2000/svg"
   xmlns:sodipodi="http://sodipodi.sourceforge.net/DTD/sodipodi-0.dtd"
   xmlns:inkscape="http://www.inkscape.org/namespaces/inkscape"
   viewBox="0 0 24 24"
   version="1.1"
   id="svg8"
   sodipodi:docname="align-horizontal-right.svg"
   inkscape:version="0.92.4 (5da689c313, 2019-01-14)">
  <metadata
     id="metadata14">
    <rdf:RDF>
      <cc:Work
         rdf:about="">
        <dc:format>image/svg+xml</dc:format>
        <dc:type
           rdf:resource="http://purl.org/dc/dcmitype/StillImage" />
      </cc:Work>
    </rdf:RDF>
  </metadata>
  <defs
     id="defs12" />
  <sodipodi:namedview
     pagecolor="#ffffff"
     bordercolor="#666666"
     borderopacity="1"
     objecttolerance="10"
     gridtolerance="10"
     guidetolerance="10"
     inkscape:pageopacity="0"
     inkscape:pageshadow="2"
     inkscape:window-width="1920"
     inkscape:window-height="1016"
     id="namedview10"
     showgrid="false"
     inkscape:zoom="9.8333333"
     inkscape:cx="12"
     inkscape:cy="12"
     inkscape:window-x="0"
     inkscape:window-y="27"
     inkscape:window-maximized="1"
     inkscape:current-layer="g6" />
  <g
     transform="matrix(0 1 1 0 6 0)"
     id="g6">
    <path
       d="m 7,4 v 6 H 20 V 4 Z m 0,10 v 6 h 6 v -6 z"
       id="path2"
       transform="rotate(-90,9,9)"
       inkscape:connector-curvature="0"
       style="fill:#c43ac4"
       sodipodi:nodetypes="cccccccccc" />
    <path
       d="m4 13v1h16v-1z"
       fill="#e95420"
       id="path4" />
    <path
       style="fill:#ffffff;fill-opacity:1;opacity:0.3"
       d="M 4 4 L 4 4.5 L 17 4.5 L 17 4 L 4 4 z M 19 4 L 19 4.5 L 20 4.5 L 20 4 L 19 4 z M 11 14 L 11 14.5 L 17 14.5 L 17 14 L 11 14 z "
       transform="matrix(0,1,1,0,0,-6)"
       id="path821" />
    <path
       style="fill:#000000;fill-opacity:1;opacity:0.2"
       d="M 4 9.5 L 4 10 L 17 10 L 17 9.5 L 4 9.5 z M 11 19.5 L 11 20 L 17 20 L 17 19.5 L 11 19.5 z M 19 19.5 L 19 20 L 20 20 L 20 19.5 L 19 19.5 z "
       transform="matrix(0,1,1,0,0,-6)"
       id="path829" />
  </g>
</svg>
